Newaita/actions/scalable/im-user-online.svg

<?xml version="1.0" encoding="UTF-8"?>
<svg xmlns="http://www.w3.org/2000/svg" xmlns:xlink="http://www.w3.org/1999/xlink" width="512pt" height="512pt" viewBox="0 0 512 512" version="1.1">
<g id="surface1">
<path style=" stroke:none;fill-rule:nonzero;fill:rgb(14.901961%,65.098041%,60.392159%);fill-opacity:1;" d="M 178.960938 244.554688 C 178.964844 244.554688 178.96875 244.550781 178.960938 244.554688 Z M 178.964844 244.554688 C 137.589844 259.640625 98.550781 290.957031 87.496094 335.210938 C 82.710938 356.292969 85.367188 378.0625 84.675781 399.488281 C 84.875 420.414062 84.261719 441.382812 84.996094 462.285156 C 87.097656 474.597656 100.355469 475.664062 110.382812 474.953125 L 407.496094 474.953125 C 421.101562 475.28125 424.667969 460.933594 423.375 450.066406 C 423.125 416.519531 423.890625 382.9375 422.949219 349.414062 C 419.007812 305.890625 385.558594 270.921875 347.664062 252.566406 C 339.929688 250.289062 331.429688 241.25 323.714844 247.292969 C 310.863281 253.558594 297.152344 258.054688 283.089844 260.628906 L 295.734375 290.472656 C 312.238281 284.484375 321.722656 278.785156 333.84375 280.828125 C 364.65625 295.453125 392.964844 324.757812 391.621094 360.984375 L 391.621094 443.199219 L 116.429688 443.199219 C 116.597656 412.921875 116.074219 382.621094 116.710938 352.355469 C 119.949219 318.210938 147.953125 292.621094 177.640625 279.191406 C 187.515625 282.175781 206.355469 286.902344 211.6875 289.777344 L 224.957031 260.628906 C 208.917969 257.699219 193.339844 252.25 178.964844 244.554688 Z M 178.964844 244.554688 "/>
<path style=" stroke:none;fill-rule:nonzero;fill:rgb(14.901961%,65.098041%,60.392159%);fill-opacity:1;" d="M 254.023438 24.089844 C 195.386719 24.089844 148.179688 71.296875 148.179688 129.933594 C 148.179688 188.570312 195.386719 235.777344 254.023438 235.777344 C 312.660156 235.777344 359.867188 188.570312 359.867188 129.933594 C 359.867188 71.296875 312.660156 24.089844 254.023438 24.089844 Z M 254.023438 56.921875 C 295.070312 56.921875 328.113281 89.964844 328.113281 131.011719 C 328.113281 172.058594 295.070312 205.101562 254.023438 205.101562 C 212.976562 205.101562 179.933594 172.058594 179.933594 131.011719 C 179.933594 89.964844 212.976562 56.921875 254.023438 56.921875 Z M 254.023438 56.921875 "/>
<path style=" stroke:none;fill-rule:nonzero;fill:rgb(25.882354%,25.882354%,25.882354%);fill-opacity:1;" d="M 254.023438 262.398438 C 247.375 262.074219 242.359375 266.769531 238.171875 271.300781 C 231.078125 277.953125 231.878906 290.332031 239.410156 296.332031 C 241.6875 298.589844 243.863281 301.085938 246.871094 302.390625 C 240.402344 318.304688 239.273438 335.769531 238.351562 352.742188 C 237.785156 375.269531 238.476562 398.234375 244.820312 420.007812 C 246.730469 424.753906 248.578125 432.566406 254.84375 432.578125 C 260.480469 430.160156 261.964844 423.285156 263.835938 418.027344 C 270.070312 394.492188 270.554688 369.824219 269.34375 345.640625 C 268.207031 331.027344 266.847656 316.054688 261.179688 302.390625 C 265.578125 300.109375 268.90625 296.183594 272.042969 292.449219 C 276.976562 285.375 275.019531 275.113281 268.390625 269.8125 C 264.679688 265.640625 259.875 262.214844 254.023438 262.398438 Z M 254.023438 262.398438 "/>
</g>
</svg>

<svg xmlns="http://www.w3.org/2000/svg" width="512pt" height="512pt" viewBox="0 0 512 512"><path d="M178.96 244.555c.005 0 .009-.004 0 0zm.005 0C137.59 259.64 98.55 290.957 87.496 335.21c-4.785 21.082-2.129 42.851-2.82 64.277.199 20.926-.414 41.895.32 62.797 2.102 12.313 15.36 13.38 25.387 12.668h297.113c13.606.328 17.172-14.02 15.879-24.887-.25-33.546.516-67.128-.426-100.652-3.941-43.523-37.39-78.492-75.285-96.848-7.734-2.277-16.234-11.316-23.95-5.273a157.593 157.593 0 0 1-40.624 13.336l12.644 29.844c16.504-5.989 25.989-11.688 38.11-9.645 30.812 14.625 59.12 43.93 57.777 80.156V443.2H116.43c.168-30.277-.356-60.578.28-90.844 3.24-34.144 31.243-59.734 60.93-73.164 9.876 2.985 28.715 7.711 34.048 10.586l13.269-29.148a157.692 157.692 0 0 1-45.992-16.074zm0 0M254.023 24.09c-58.636 0-105.843 47.207-105.843 105.844 0 58.636 47.207 105.843 105.843 105.843 58.637 0 105.844-47.207 105.844-105.843 0-58.637-47.207-105.844-105.844-105.844zm0 32.832c41.047 0 74.09 33.043 74.09 74.09 0 41.047-33.043 74.09-74.09 74.09-41.046 0-74.09-33.043-74.09-74.09 0-41.047 33.044-74.09 74.09-74.09zm0 0" fill="#26a69a"/><path d="M254.023 262.398c-6.648-.324-11.664 4.372-15.851 8.903-7.094 6.652-6.293 19.031 1.238 25.031 2.278 2.258 4.453 4.754 7.461 6.059-6.469 15.914-7.598 33.379-8.52 50.351-.566 22.528.126 45.492 6.47 67.266 1.91 4.746 3.757 12.558 10.023 12.57 5.636-2.418 7.12-9.293 8.992-14.55 6.234-23.536 6.719-48.204 5.508-72.387-1.137-14.614-2.496-29.586-8.164-43.25 4.398-2.282 7.726-6.207 10.863-9.942 4.934-7.074 2.977-17.336-3.652-22.637-3.711-4.171-8.516-7.597-14.368-7.414zm0 0" fill="#424242"/></svg>
